X: 21263
T: The Widow's shall have Spouses
N: The book does have "Widow's" rather than "Widows".
%R: reel
B: James Oswald "The Caledonian Pocket Companion" v.2 p.126 #3
Z: 2018 John Chambers <jc:trillian.mit.edu>
M: C|
L: 1/8
K: A
|:"_Brisk"\
a2ec a2ec | TBABc f2f2 | a2ec a2ec | dBec A2A2 :: (ag)(Tfe) (ag)(Tfe) | (fe)(fa) b2b2 |
(ag)(Tfe) (fa)(ec) | (dB)(ec) A2A2 :: Aaec Aaec | Aaec B2Tf2 | Aaec Aaec |
dBec A2A2 :: afge fdec | dBcA B2Tf2 | afge fdec | dBec A2A2 :|


